src/basic/500/u1F5D9-close.svg

<svg width="21" height="28" viewBox="0 0 21 28" fill="none" xmlns="http://www.w3.org/2000/svg">
<path fill-rule="evenodd" clip-rule="evenodd" d="M10.5 14.7071L0.791051 24.416L0.083944 23.7089L9.79289 14L0.0839299 4.29104L0.791037 3.58393L10.5 13.2929L20.209 3.58393L20.9161 4.29104L11.2071 14L20.9161 23.7089L20.2089 24.416L10.5 14.7071Z" fill="black"/>
</svg>

<svg width="21" height="28" viewBox="0 0 21 28" fill="none" xmlns="http://www.w3.org/2000/svg">
<path fill-rule="evenodd" clip-rule="evenodd" d="M10.5,14.7071l-9.70895,9.7089l-0.70711,-0.7071l9.70895,-9.7089l-9.70896,-9.70896l0.70711,-0.70711l9.70896,9.70897l9.709,-9.70897l0.7071,0.70711l-9.709,9.70896l9.709,9.7089l-0.7072,0.7071z" fill="black"/>
</svg>
